!!!!SEGMENT: pl-kk--kk-i-27--002_anonim--missa-sine-nomine-et-in-terra.krn
!!!cenid: 17xx:2220
!!!COM: Anonim
!!!COM-rismID:
!!!CDT:
!!!CNT:
!!!OPR: Missa Sine Nomine
!!!OTL: Et in terra
!!!OMV: 002
!!!PDT:
!!!AGN: Sacred; Mass
!!!SMS-siglum: PL-Kk
!!!SMS-shelfmark: Kk.I.27
!!!SMS-shelfwork: 001-002 M
!!!SMS-variant:
!!!SMS-altvar:
!!!NIFC-rismSourceID: 1001156089
!!!NIFC-islandoraID: pl-kk:15429
!!!URL-pdf-islandora: https://repozytorium.nifc.pl/islandora/object/pl-kk%3A15429/datastream/PDF/view
!!!URL-scan:
!!!ONB-nifc: UWAGA: części Mszy: 1. Kyrie, 2. Et in terra, 3. Sanctus, 4. Agnus Dei.
!!!AIN: 1 alto 1 empty 1 tenor 1 vox
!!!key:
**kern	**text	**kern	**text	**kern	**text	**kern	**text
*part4	*part4	*part3	*part3	*part2	*part2	*part1	*part1
*staff4	*staff4	*staff3	*staff3	*staff2	*staff2	*staff1	*staff1
*Iempty	*	*Itenor	*	*Ialto	*	*Ivox	*
*I"Baſso.	*	*I"Tenore	*	*I"Alto.	*	*I"Canto.	*
*I'B	*	*I'T	*	*I'A	*	*I'S	*
*clefF4	*	*clefC4	*	*clefC3	*	*clefC1	*
*k[]	*	*k[]	*	*k[]	*	*k[]	*
*a:	*	*a:	*	*a:	*	*a:	*
*M2/1	*	*M2/1	*	*M2/1	*	*M2/1	*
*met(C|)	*	*met(C|)	*	*met(C|)	*	*met(C|)	*
=1-	=1-	=1-	=1-	=1-	=1-	=1-	=1-
!LO:TX:b:t=Et in terra	!	!LO:TX:b:t=Et in terra.	!	!	!	!	!
00r	.	00r	.	1rg	.	2r	.
.	.	.	.	.	.	1a\	Et
.	.	.	.	1d	Et	.	.
.	.	.	.	.	.	1b\	in
=2-	=2-	=2-	=2-	=2-	=2-	=2-	=2-
!	!	!	!	!LO:TX:t=P:problem=kreska pseudotaktowa	!	!	!
.	.	.	.	1e	in	.	.
.	.	.	.	.	.	4cc\	ter-
!	!	!	!	!	!	!LO:TX:t=P:problem=kreska pseudotaktowa	!
.	.	.	.	.	.	4b\	.
*	*	*	*	*2\right	*	*	*
.	.	.	.	(2.f\	ter-	4a\	.
.	.	.	.	.	.	4b\	.
.	.	.	.	.	.	1cc\	.
!	!	!	!	!LO:TX:t=P:problem=kreska pseudotaktowa	!	!	!
.	.	.	.	4e\)	.	.	.
=3-	=3-	=3-	=3-	=3-	=3-	=3-	=3-
!LO:TX:t=P:problem=kreska pseudotaktowa	!	!LO:TX:t=P:problem=kreska pseudotaktowa	!	!	!	!	!
1r	.	1r	.	2.d\	.	.	.
*	*	*	*	*	*	*2\right	*
.	.	.	.	.	.	2b\	-ra
.	.	.	.	4d\	-ra	.	.
!	!	!	!	!LO:TX:t=P:problem=kreska pseudotaktowa	!	!LO:TX:t=P:problem=kreska pseudotaktowa	!
2r	.	2r	.	1c,<	pax	1cc,<	pax
*	*	*2\right	*	*	*	*	*
!	!	!LO:TX:t=P:problem=kreska pseudotaktowa	!	!	!	!	!
4C/	pax	[<2c\	pax	.	.	.	.
!LO:TX:t=P:problem=kreska pseudotaktowa	!	!	!	!	!	!	!
4C/	ho-	.	.	.	.	.	.
=4-	=4-	=4-	=4-	=4-	=4-	=4-	=4-
*2\right	*	*	*	*	*	*	*
2G\	-mi-	4c\]	.	1ra	.	2r	.
.	.	4c\	ho-	.	.	.	.
!	!	!LO:TX:t=P:problem=kreska pseudotaktowa	!	!	!	!	!
4G\	-ni-	[<2Bn\	-mi-	.	.	4g/	pax
!LO:TX:t=P:problem=kreska pseudotaktowa	!	!	!	!	!	!LO:TX:t=P:problem=kreska pseudotaktowa	!
4G\	-b(us)	.	.	.	.	4g/	ho-
4Fn\	bo-	4B]	.	2r	.	2dd\	-mi-
4F\	-nae	4B\	-ni-	.	.	.	.
!	!	!LO:TX:t=P:problem=kreska pseudotaktowa	!	!	!	!	!
4F\	vo-	2B\	-b(us)	4f\	pax	4dd\	-ni-
!LO:TX:t=P:problem=kreska pseudotaktowa	!	!	!	!LO:TX:t=P:problem=kreska pseudotaktowa	!	!LO:TX:t=P:problem=kreska pseudotaktowa	!
4F\	-lun-	.	.	4f\	ho-	4dd\	-b(us)
=5-	=5-	=5-	=5-	=5-	=5-	=5-	=5-
(2E\	-ta-	4c\	bo-	2g\	-mi-	4ccn\	bo-
.	.	4c\	-nae	.	.	4cc\	-nae
!LO:TX:t=P:problem=kreska pseudotaktowa	!	!	!	!	!	!	!
2A\)	.	4c\	vo-	4g\	-ni-	4cc\	vo-
!	!	!	!	!LO:TX:t=P:problem=kreska pseudotaktowa	!	!LO:TX:t=P:problem=kreska pseudotaktowa	!
.	.	4c\	-lun-	4g,<\	-b(us)	4b\	-lun-
!	!	!LO:TX:t=P:problem=kreska pseudotaktowa	!	!	!	!	!
!	!	!	!	!	!	!LO:TX:t=P:problem=kreska pseudotaktowa	!
2F\	.	[<1d	-ta-	4f\	bo-	(1a	-ta-
.	.	.	.	4f\	-nae	.	.
!LO:TX:t=P:problem=kreska pseudotaktowa	!	!	!	!	!	!	!
2D\	.	.	.	4f\	vo-	.	.
.	.	.	.	4a\	-lun-	.	.
=6-	=6-	=6-	=6-	=6-	=6-	=6-	=6-
*	*	*	*	*lig	*	*	*
!	!	!	!	!	!	!LO:TX:t=P:problem=kreska pseudotaktowa	!
2G\	.	2d\]	.	1g\	-ta-	1b)	.
!LO:TX:t=P:problem=kreska pseudotaktowa	!	!	!	!	!	!	!
2GG/	.	1e	.	.	.	.	.
2AA/	.	.	.	1f	.	2cc\	.
!LO:TX:t=P:problem=kreska pseudotaktowa	!	!	!	!	!	!	!
2BB/	.	1d\	.	.	.	2dd\	.
*	*	*	*	*Xlig	*	*	*
=7-	=7-	=7-	=7-	=7-	=7-	=7-	=7-
*	*	*	*	*lig	*	*	*
4C/	.	.	.	1e	.	0g	.
4D/	.	.	.	.	.	.	.
4E/	.	1c	.	.	.	.	.
!LO:TX:t=P:problem=kreska pseudotaktowa	!	!	!	!	!	!	!
4F/	.	.	.	.	.	.	.
!	!	!	!	!LO:TX:t=P:problem=kreska pseudotaktowa	!	!	!
2G\	.	.	.	1d\	.	.	.
2GG/	.	2B\	.	.	.	.	.
*	*	*	*	*Xlig	*	*	*
=8-	=8-	=8-	=8-	=8-	=8-	=8-	=8-
!LO:TX:t=P:problem=kreska pseudotaktowa	!	!LO:TX:t=P:problem=kreska pseudotaktowa	!	!	!	!LO:TX:t=P:problem=kreska pseudotaktowa	!
1C,<	-tis.	1c,<	-tis.	2e,<\	-tis.	1g	-tis.
!	!	!	!	!LO:TX:t=P:problem=kreska pseudotaktowa	!	!	!
.	.	.	.	2e\	Lau-	.	.
0r	.	1re	.	2f\	-da-	0r	.
!	!	!	!	!LO:TX:t=P:problem=kreska pseudotaktowa	!	!	!
.	.	.	.	2g\	-m(us)	.	.
=9-	=9-	=9-	=9-	=9-	=9-	=9-	=9-
.	.	2r	.	4c,</	Te	.	.
.	.	.	.	4c/	Lau-	.	.
.	.	4B\	be-	1g	-da-	.	.
!	!	!LO:TX:t=P:problem=kreska pseudotaktowa	!	!	!	!	!
.	.	4B\	-ne-	.	.	.	.
!LO:TX:t=P:problem=kreska pseudotaktowa	!	!	!	!	!	!LO:TX:t=P:problem=kreska pseudotaktowa	!
1r	.	2c\	-di-	.	.	1r	.
*	*	*	*	*custos:g	*	*	*
!	!	!	!	!LO:TX:t=P:problem=kreska pseudotaktowa	!	!	!
.	.	4d\	-ci-	2f#,<\	-m(us)	.	.
!	!	!LO:TX:t=P:problem=kreska pseudotaktowa	!	!	!	!	!
.	.	4d\	-m(us)	.	.	.	.
!	!	!	!	!LO:LB:g=original	!	!	!
=10-	=10-	=10-	=10-	=10-	=10-	=10-	=10-
2r	.	2G,</	Te	2g,<\	[a]-	2.dd\	a-
!LO:TX:t=P:problem=kreska pseudotaktowa	!	!	!	!	!	!	!
[2G\	a-	4G/	a-	2B/	-do-	.	.
!	!	!LO:TX:t=P:problem=kreska pseudotaktowa	!	!	!	!LO:TX:t=P:problem=kreska pseudotaktowa	!
.	.	4G/	-do-	.	.	4dd\	-do-
4G\]	.	2A\	-ra-	2c\	-ra-	2cc\	-ra-
4G\	-do-	.	.	.	.	.	.
*	*	*	*	*	*	*custos:g	*
!	!	!	!	!	!	!LO:TX:t=P:problem=kreska pseudotaktowa	!
!	!	!LO:TX:t=P:problem=kreska pseudotaktowa	!	!LO:TX:t=P:problem=kreska pseudotaktowa	!	!	!
4Fn\	-ra-	2B\	-m(us)	2d\	-m(us)	2b\	-m(us)
*custos:E	*	*	*	*	*	*	*
!LO:TX:t=P:problem=kreska pseudotaktowa	!	!	!	!	!	!	!
4F\	-m(us)	.	.	.	.	.	.
!LO:LB:g=original	!	!	!	!	!	!LO:LB:g=original	!
=11-	=11-	=11-	=11-	=11-	=11-	=11-	=11-
2E,<\	Te	2c,<\	Te	2e,\	Te	2gn\	Te
!	!	!	!	!	!	!LO:TX:t=P:problem=kreska pseudotaktowa	!
2E\	glo-	2B\	glo-	2e\	glo-	2g#X\	glo-
2A\	-ri-	2c\	-ri-	2e\	-ri-	2a\	-ri-
!LO:TX:t=P:problem=kreska pseudotaktowa	!	!LO:TX:t=P:problem=kreska pseudotaktowa	!	!LO:TX:t=P:problem=kreska pseudotaktowa	!	!	!
2E\	-fi-	2B\	-fi-	2e\	-fi-	2g#X\	-fi-
!	!	!LO:LB:g=original	!	!	!	!	!
=12-	=12-	=12-	=12-	=12-	=12-	=12-	=12-
2A\	-ca-	2.c\	-ca-	2.e\	-ca-	2.a\	-ca-
2AA/	-m(us)	.	.	.	.	.	.
!	!	!LO:TX:t=P:problem=kreska pseudotaktowa	!	!	!	!	!
.	.	4c\	-m(us)	4e\	-m(us)	4a\	-m(us)
1E;,<	Te.	1Bn;,<	Te.	1e;,<	Te.	1g#X;,<	Te.
=13||	=13||	=13||	=13||	=13||	=13||	=13||	=13||
00r	.	00r	.	2c\	Gra-	0r	.
.	.	.	.	4d\	-ti-	.	.
!	!	!	!	!LO:TX:t=P:problem=kreska pseudotaktowa	!	!	!
.	.	.	.	4e\	-as	.	.
.	.	.	.	2f\	a-	.	.
.	.	.	.	4g\	-gi-	.	.
!	!	!	!	!LO:TX:t=P:problem=kreska pseudotaktowa	!	!	!
.	.	.	.	4f\	-m(us)	.	.
=14-	=14-	=14-	=14-	=14-	=14-	=14-	=14-
.	.	.	.	(2e\	Ti-	1r	.
!	!	!	!	!LO:TX:t=P:problem=kreska pseudotaktowa	!	!	!
.	.	.	.	2d\)	.	.	.
.	.	.	.	2c,</	-bi	2gn\	Gra-
.	.	.	.	4c/	pro-	4a\	-ti-
!	!	!	!	!LO:TX:t=P:problem=kreska pseudotaktowa	!	!LO:TX:t=P:problem=kreska pseudotaktowa	!
.	.	.	.	4B/	-pter	4b\	-as
=15-	=15-	=15-	=15-	=15-	=15-	=15-	=15-
!LO:TX:t=P:problem=kreska pseudotaktowa	!	!LO:TX:t=P:problem=kreska pseudotaktowa	!	!	!	!	!
0rE	.	1r	.	2A/	ma-	2cc\	a-
.	.	.	.	(4B/	-gna(m)	4dd\	-gi-
!	!	!	!	!LO:TX:t=P:problem=kreska pseudotaktowa	!	!LO:TX:t=P:problem=kreska pseudotaktowa	!
.	.	.	.	4c/)	.	4cc\	-m(us)
.	.	2.d\	pro-	2.d\	glo-	(2b\	Ti-
.	.	.	.	.	.	2a\)	.
!	!	!LO:TX:t=P:problem=kreska pseudotaktowa	!	!LO:TX:t=P:problem=kreska pseudotaktowa	!	!	!
.	.	4c\	-pter	4d\	-ri-	.	.
=16-	=16-	=16-	=16-	=16-	=16-	=16-	=16-
!	!	!	!	!	!	!LO:TX:t=P:problem=kreska pseudotaktowa	!
2.G\	pro-	4B\	ma-	2d,<\	-am	1g,<	-bi
.	.	4A,<\	-gna(m)	.	.	.	.
.	.	4G/	glo-	[2g\	p(ro)-	.	.
!LO:TX:t=P:problem=kreska pseudotaktowa	!	!LO:TX:t=P:problem=kreska pseudotaktowa	!	!	!	!	!
4F\	-pter	4d\	.	.	.	.	.
!	!	!LO:TX:t=P:problem=kreska pseudotaktowa	!	!	!	!	!
4E\	ma-	[<1e	.	4g\]	.	2.cc\	pro-
4D,<\	-gna(m)	.	.	4f\	-pter	.	.
!LO:TX:t=P:problem=kreska pseudotaktowa	!	!	!	!	!	!	!
[2C/	glo-	.	.	4e|\	ma-	.	.
!	!	!	!	!LO:TX:t=P:problem=kreska pseudotaktowa	!	!	!
!	!	!	!	!	!	!LO:TX:t=P:problem=kreska pseudotaktowa	!
.	.	.	.	4d|\	-gna(m)	4b\	-pter
=17-	=17-	=17-	=17-	=17-	=17-	=17-	=17-
2C/]	.	2e]	.	2e\	glo-	2a\	ma-
!LO:TX:t=P:problem=kreska pseudotaktowa	!	!	!	!	!	!	!
(2D\	.	4d\	.	4f\	-(ri)-	(4b\	-gnam
!	!	!LO:TX:t=P:problem=kreska pseudotaktowa	!	!	!	!LO:TX:t=P:problem=kreska pseudotaktowa	!
.	.	4c\	.	4f,<\	-a(m)	4a\)	.
2E\)	.	2B\	.	1e	tu-	2g#X\	glo-
4AA/	-ri-	4c\	-ri-	.	.	4a\	-ri-
!LO:TX:t=P:problem=kreska pseudotaktowa	!	!LO:TX:t=P:problem=kreska pseudotaktowa	!	!	!	!LO:TX:t=P:problem=kreska pseudotaktowa	!
4AA/	-am	4c\	-am	.	.	4a,<\	-am
=18-	=18-	=18-	=18-	=18-	=18-	=18-	=18-
!	!	!	!	!LO:TX:t=P:problem=kreska pseudotaktowa	!	!	!
1E	tu-	1B	tu-	1e,<	-a(m)	(2a\	Tu-
.	.	.	.	.	.	2g#X\)	.
!	!	!LO:TX:t=P:problem=kreska pseudotaktowa	!	!LO:PB:g=original	!	!LO:TX:t=P:problem=kreska pseudotaktowa	!
2AA,</	-am.	1c,<	-am.	2e\	Do-	1a,<	-am
1A\	Do-	.	.	4c/	-mi-	.	.
!	!	!	!	!LO:TX:t=P:problem=kreska pseudotaktowa	!	!	!
.	.	.	.	4c/	-ne	.	.
=19-	=19-	=19-	=19-	=19-	=19-	=19-	=19-
.	.	2B\	Do-	2d\	De-	00r	.
!	!	!	!	!LO:TX:t=P:problem=kreska pseudotaktowa	!	!	!
4G#X\	-mi-	4Bn\	-mi-	2e,<\	-us	.	.
!LO:TX:t=P:problem=kreska pseudotaktowa	!	!LO:TX:t=P:problem=kreska pseudotaktowa	!	!	!	!	!
4G#\	-ne	4B\	-ne	.	.	.	.
2A\	DE-	4c\	DE-	2A,</	Rex	.	.
.	.	4c\	-(us)	.	.	.	.
!LO:TX:t=P:problem=kreska pseudotaktowa	!	!	!	!LO:TX:t=P:problem=kreska pseudotaktowa	!	!	!
2E\	-(us)	4B\	Rex	2B/	cae-	.	.
!	!	!LO:TX:t=P:problem=kreska pseudotaktowa	!	!	!	!	!
.	.	4B\	cae-	.	.	.	.
=20-	=20-	=20-	=20-	=20-	=20-	=20-	=20-
2A\	Rex	4A/	-leſ-	2c\	-les-	.	.
.	.	4A/	-tis,	.	.	.	.
!LO:TX:t=P:problem=kreska pseudotaktowa	!	!LO:TX:t=P:problem=kreska pseudotaktowa	!	!LO:TX:t=P:problem=kreska pseudotaktowa	!	!	!
2B\	cae-	1r	.	2d,<\	-tis	.	.
4c\	-les-	.	.	2e\	Da-	.	.
4Gny,<\	-tis	.	.	.	.	.	.
!	!	!	!	!LO:TX:t=P:problem=kreska pseudotaktowa	!	!	!
4E\	De-	4c\	De-	2e\	-us	.	.
*custos:F	*	*	*	*	*	*	*
!	!	!LO:TX:t=P:problem=kreska pseudotaktowa	!	!	!	!	!
4C/	-us	4c\	-us	.	.	.	.
!LO:LB:g=original	!	!	!	!	!	!	!
=21-	=21-	=21-	=21-	=21-	=21-	=21-	=21-
2F\	.	2c\	Pa-	2f\	Pa-	0r	.
4C,</	.	4c\	-ter	4e,<\	-ter	.	.
!	!	!	!	!LO:TX:t=P:problem=kreska pseudotaktowa	!	!	!
4C/	O-	4c\	O-	4e\	o-	.	.
2.G\	-mni-	2c\	-mni-	2.d\	-mni-	.	.
.	.	2B\	-po-	.	.	.	.
4G\	-po-	.	.	4d\	-po-	.	.
=22-	=22-	=22-	=22-	=22-	=22-	=22-	=22-
!LO:TX:t=P:problem=kreska pseudotaktowa	!	!LO:TX:t=P:problem=kreska pseudotaktowa	!	!LO:TX:t=P:problem=kreska pseudotaktowa	!	!	!
1C	-tens.	1c,<	-tens	1e,<	-tens.	2r	.
.	.	.	.	.	.	1cc\	Do-
!	!	!LO:LB:g=original	!	!	!	!	!
2D\	Do-	00rc	.	2fn\	Do-	.	.
*	*	*	*	*	*	*custos:a	*
!	!	!	!	!	!	!LO:TX:t=P:problem=kreska pseudotaktowa	!
4E\	-mi-	.	.	4g\	-mi-	2b-X\	-mi-
!LO:TX:t=P:problem=kreska pseudotaktowa	!	!	!	!LO:TX:t=P:problem=kreska pseudotaktowa	!	!	!
4E\	-ne	.	.	4g\	-ne	.	.
!	!	!	!	!	!	!LO:LB:g=original	!
=23-	=23-	=23-	=23-	=23-	=23-	=23-	=23-
2F\	Fi-	.	.	2c/	Fi-	2a,<\	-ne
!LO:TX:t=P:problem=kreska pseudotaktowa	!	!	!	!LO:TX:t=P:problem=kreska pseudotaktowa	!	!	!
2D\	-li	.	.	2f\	-li	2.dd\	Fi-
2E\	U-	.	.	2g\	U-	.	.
.	.	.	.	.	.	4dd\	-li
!LO:TX:t=P:problem=kreska pseudotaktowa	!	!	!	!LO:TX:t=P:problem=kreska pseudotaktowa	!	!	!
2F#X\	-ni-	.	.	2a\	-ni-	4cc\	u-
!	!	!	!	!	!	!LO:TX:t=P:problem=kreska pseudotaktowa	!
.	.	.	.	.	.	4cc\	-ni-
=24-	=24-	=24-	=24-	=24-	=24-	=24-	=24-
2G\	-ge-	.	.	2d\	-ge-	(2bn\	-ge-
2E\	-ni-	.	.	4g\	-ni-	2.ee\)	.
!	!	!	!	!LO:TX:t=P:problem=kreska pseudotaktowa	!	!	!
.	.	.	.	4g\	-te	.	.
(2F#X\	-te	0r	.	2a\	Je-	.	.
.	.	.	.	.	.	4ee\	-ni-
!LO:TX:t=P:problem=kreska pseudotaktowa	!	!	!	!LO:TX:t=P:problem=kreska pseudotaktowa	!	!LO:TX:t=P:problem=kreska pseudotaktowa	!
2G#X\)	.	.	.	2b\	-ſu	2dd,<\	-te
=25-	=25-	=25-	=25-	=25-	=25-	=25-	=25-
2A\	Je-	.	.	1.e	X-	(4cc\	Je-
.	.	.	.	.	.	4b\)	.
!LO:TX:t=P:problem=kreska pseudotaktowa	!	!	!	!	!	!	!
2AA/	-su	.	.	.	.	(4a\	-ſu
.	.	.	.	.	.	4gny\)	.
!	!	!LO:TX:t=P:problem=kreska pseudotaktowa	!	!	!	!LO:TX:t=P:problem=kreska pseudotaktowa	!
1BB	Chri-	1r	.	.	.	1f#X	X-
.	.	.	.	2d#X\	.	.	.
=26-	=26-	=26-	=26-	=26-	=26-	=26-	=26-
!LO:TX:t=P:problem=kreska pseudotaktowa	!	!	!	!LO:TX:t=P:problem=kreska pseudotaktowa	!	!	!
1E,<	-ste.	1Bn	Do-	1e,<	-te	1g#X,<	-te
!	!	!	!	!LO:TX:t=P:problem=kreska pseudotaktowa	!	!	!
!	!	!	!	!LO:LB:g=original	!	!	!
1E	Do-	2c\	-mi-	1ra	.	2gny\	Do-
!	!	!LO:TX:t=P:problem=kreska pseudotaktowa	!	!	!	!	!
.	.	2G#X,</	-ne	.	.	4bn\	-mi-
!	!	!	!	!	!	!LO:TX:t=P:problem=kreska pseudotaktowa	!
.	.	.	.	.	.	4b\	-ne
=27-	=27-	=27-	=27-	=27-	=27-	=27-	=27-
2Fny\	-mi-	2A\	De-	2c/	Do-	2a\	DE-
!LO:TX:t=P:problem=kreska pseudotaktowa	!	!LO:TX:t=P:problem=kreska pseudotaktowa	!	!	!	!LO:TX:t=P:problem=kreska pseudotaktowa	!
2C/	-ne	2c\	-us	4c/	-mi-	2a,<\	-(us)
!	!	!	!	!LO:TX:t=P:problem=kreska pseudotaktowa	!	!	!
.	.	.	.	4B/	-ne	.	.
2D/	DE-	2f\	A-	2A/	De-	2a\	Ag-
!	!	!LO:TX:t=P:problem=kreska pseudotaktowa	!	!LO:TX:t=P:problem=kreska pseudotaktowa	!	!	!
2C,</	-us	2e\	-gn(us)	2A/	-us	2a\	-n(us)
=28-	=28-	=28-	=28-	=28-	=28-	=28-	=28-
2BB/	a-	(2d\	De-	2B/	A-	2g#X\	De-
2AA/	-gn(us)	2c\)	.	(4c\	-gn(us)	1a\	.
!	!	!	!	!LO:TX:t=P:problem=kreska pseudotaktowa	!	!	!
.	.	.	.	4e\)	.	.	.
!	!	!LO:TX:t=P:problem=kreska pseudotaktowa	!	!	!	!	!
2E\	De-	1B,<	-i	2e\	De-	.	.
*custos:C	*	*	*	*	*	*	*
!LO:TX:t=P:problem=kreska pseudotaktowa	!	!	!	!	!	!	!
!	!	!	!	!LO:TX:t=P:problem=kreska pseudotaktowa	!	!LO:TX:t=P:problem=kreska pseudotaktowa	!
2E\	-i	.	.	2e\	-i	2g#X,<\	-i
!LO:PB:g=original	!	!	!	!	!	!	!
=29-	=29-	=29-	=29-	=29-	=29-	=29-	=29-
1C	Fi-	(2.c\	Fi-	1e	Fi-	2a\	Fi-
.	.	.	.	.	.	4a\	-li-
!	!	!	!	!	!	!LO:TX:t=P:problem=kreska pseudotaktowa	!
.	.	4B\	.	.	.	4a\	-(us)
2D/	-li-	2A\)	.	2f\	-li-	1.a	Pa-
!	!	!	!	!LO:TX:t=P:problem=kreska pseudotaktowa	!	!	!
2AA/	-us	4c\	-li-	2e\	-us	.	.
.	.	4c,<\	-us	.	.	.	.
=30-	=30-	=30-	=30-	=30-	=30-	=30-	=30-
!LO:TX:t=P:problem=kreska pseudotaktowa	!	!LO:TX:t=P:problem=kreska pseudotaktowa	!	!	!	!	!
1E	Pa-	1B	Pa-	1e	Pa-	.	.
!	!	!	!	!	!	!LO:TX:t=P:problem=kreska pseudotaktowa	!
.	.	.	.	.	.	2g#X\	.
2A,<\	-tris	2c,<\	-tris.	2e,<\	-tris	2a,<\	-tris.
*	*	*	*	*	*	*custos:a	*
!	!	!	!	!	!	!LO:TX:t=P:problem=kreska pseudotaktowa	!
!LO:TX:t=P:problem=kreska pseudotaktowa	!	!LO:TX:t=P:problem=kreska pseudotaktowa	!	!LO:TX:t=P:problem=kreska pseudotaktowa	!	!	!
2Gny\	Qui	2c#X\	Qui	2e\	Qui	2a\	Qui
!	!	!	!	!	!	!LO:PB:g=original	!
=31-	=31-	=31-	=31-	=31-	=31-	=31-	=31-
2F\	tol-	2d\	tol-	2f\	tol-	2a\	tol-
4D,</	-lis	4d\	-lis	4f\	-lis	4a\	-lis
!LO:TX:t=P:problem=kreska pseudotaktowa	!	!LO:TX:t=P:problem=kreska pseudotaktowa	!	!LO:TX:t=P:problem=kreska pseudotaktowa	!	!LO:TX:t=P:problem=kreska pseudotaktowa	!
4D/	pec-	4d\	pec-	4f\	pec-	4a\	pec-
2G\	-ca-	2d\	-ca-	2e\	-ca-	4b-X\	-ca-
.	.	.	.	.	.	4b-\	-ta
!	!	!	!	!LO:TX:t=P:problem=kreska pseudotaktowa	!	!	!
2A,<\	-ta	2c#X\	-ta	2e\	-ta	1a\	mun-
=32-	=32-	=32-	=32-	=32-	=32-	=32-	=32-
1B-X	mun-	1d	mun-	1dny	mun-	.	.
!	!	!	!	!	!	!LO:TX:t=P:problem=kreska pseudotaktowa	!
.	.	.	.	.	.	2gny\	.
!LO:TX:t=P:problem=kreska pseudotaktowa	!	!	!	!LO:TX:t=P:problem=kreska pseudotaktowa	!	!LO:TX:t=P:problem=kreska pseudotaktowa	!
1A,	-di	2c#X,<\	-di,	1e	-di	1a,<	-di!
!	!	!LO:PB:g=original	!	!	!	!	!
.	.	1e\	mi-	.	.	.	.
=33-	=33-	=33-	=33-	=33-	=33-	=33-	=33-
!	!	!	!	!	!	!LO:TX:t=P:problem=kreska pseudotaktowa	!
1D	mi-	.	.	2.f\	mi-	0r	.
.	.	1d	-se-	.	.	.	.
.	.	.	.	4f\	-ſe-	.	.
!LO:TX:t=P:problem=kreska pseudotaktowa	!	!	!	!LO:TX:t=P:problem=kreska pseudotaktowa	!	!	!
1En	-ſe-	.	.	[<1g	-re-	.	.
!	!	!LO:TX:t=P:problem=kreska pseudotaktowa	!	!	!	!	!
.	.	[2cny\	-re-	.	.	.	.
=34-	=34-	=34-	=34-	=34-	=34-	=34-	=34-
1F	-re-	2c\]	.	2g\]	.	2.a\	mi-
!	!	!LO:TX:t=P:problem=kreska pseudotaktowa	!	!	!	!	!
.	.	2c\	-re	1f\	-re	.	.
.	.	.	.	.	.	4a\	-ſe-
!LO:TX:t=P:problem=kreska pseudotaktowa	!	!	!	!	!	!	!
*	*	*lig	*	*	*	*	*
!	!	!	!	!LO:TX:t=P:problem=kreska pseudotaktowa	!	!	!
1BB-X,<	-re	1d	no-	.	.	2b-X\	-re-
!	!	!	!	!	!	!LO:TX:t=P:problem=kreska pseudotaktowa	!
.	.	.	.	[<2f\	no-	2dd\	-re
=35-	=35-	=35-	=35-	=35-	=35-	=35-	=35-
1C	no-	1c	.	2f\]	.	1g	no-
*	*	*	*	*custos:f	*	*	*
!	!	!	!	!LO:TX:t=P:problem=kreska pseudotaktowa	!	!	!
.	.	.	.	2e\	.	.	.
!	!	!	!	!LO:LB:g=original	!	!	!
*	*	*Xlig	*	*	*	*	*
2FF,</	-bis	2c,<\	-bis.	2f,<\	-bis.	2a,<\	-bis
!LO:TX:t=P:problem=kreska pseudotaktowa	!	!LO:TX:t=P:problem=kreska pseudotaktowa	!	!LO:TX:t=P:problem=kreska pseudotaktowa	!	!LO:TX:t=P:problem=kreska pseudotaktowa	!
2F\	Qui	2c\	Qui	2f\	Qui	2a\	Qui
=36-	=36-	=36-	=36-	=36-	=36-	=36-	=36-
1En	tol-	1c#X	tol-	1g	tol-	1b-X	tol-
2E,<\	-lis	2c#,<\	-lis	2g\	-lis	2b-,<\	-lis
!LO:TX:t=P:problem=kreska pseudotaktowa	!	!LO:TX:t=P:problem=kreska pseudotaktowa	!	!LO:TX:t=P:problem=kreska pseudotaktowa	!	!LO:TX:t=P:problem=kreska pseudotaktowa	!
2E\	pec-	2c#\	pec-	2g\	pec-	2b-\	pec-
=37-	=37-	=37-	=37-	=37-	=37-	=37-	=37-
!LO:TX:t=P:problem=kreska pseudotaktowa	!	!	!	!LO:TX:t=P:problem=kreska pseudotaktowa	!	!	!
1D	-ca-	1d	-ca-	1f	-ca-	1a	-ca-
2D,</	-ta	2d,<\	-ta	2f,<\	-ta	2a,<\	-ta
*	*ij	*	*ij	*	*ij	*	*ij
!	!	!LO:TX:t=P:problem=kreska pseudotaktowa	!	!LO:TX:t=P:problem=kreska pseudotaktowa	!	!LO:TX:t=P:problem=kreska pseudotaktowa	!
2d\	pec-	2d\	pec-	2f\	pec-	2a\	pec-
=38-	=38-	=38-	=38-	=38-	=38-	=38-	=38-
2G#X\	-ca-	2d\	-ca-	4e\	-ca-	2g#X/	-ca-
.	.	.	.	4e,<\	-ta	.	.
*	*	*	*	*	*Xij	*	*
!LO:TX:t=P:problem=kreska pseudotaktowa	!	!	!	!	!	!	!
2A\	-ta	2c\	-ta	1e\	mun-	2e,</	-ta
*	*Xij	*	*Xij	*	*	*	*Xij
!LO:LB:g=original	!	!	!	!	!	!	!
1F	mun-	(2c\	mun-	.	.	1a	mun-
!	!	!LO:TX:t=P:problem=kreska pseudotaktowa	!	!	!	!	!
.	.	2A\)	.	2d\	.	.	.
=39-	=39-	=39-	=39-	=39-	=39-	=39-	=39-
!LO:TX:t=P:problem=kreska pseudotaktowa	!	!	!	!LO:TX:t=P:problem=kreska pseudotaktowa	!	!LO:TX:t=P:problem=kreska pseudotaktowa	!
1E,<	-di.	1B,<	-di.	1e,<	-di,	1g#X,<	-di.
2A\	Suſ-	2c\	Suſ-	2e\	Suſ-	2a\	Suſ-
4A\	-ci-	4c\	-ci-	4a\	-ci-	4a\	-ci-
!LO:TX:t=P:problem=kreska pseudotaktowa	!	!LO:TX:t=P:problem=kreska pseudotaktowa	!	!LO:TX:t=P:problem=kreska pseudotaktowa	!	!LO:TX:t=P:problem=kreska pseudotaktowa	!
4Gny\	-pe	4c\	-pe	4a\	-pe	4a\	-pe
!	!	!	!	!	!	!LO:LB:g=original	!
=40-	=40-	=40-	=40-	=40-	=40-	=40-	=40-
4F\	de-	4f\	de-	4a\	de-	4dd\	de-
4E\	-pre-	4f\	-pre-	4a\	-pre-	4dd\	-pre-
4F\	-ca-	4f\	-ca-	4a\	-ca-	4dd\	-ca-
!LO:TX:t=P:problem=kreska pseudotaktowa	!	!LO:TX:t=P:problem=kreska pseudotaktowa	!	!	!	!LO:TX:t=P:problem=kreska pseudotaktowa	!
4D\	-ti-	4e\	-ti-	4a\	-ti-	4cc\	-ti-
2G\	-o-	2d\	-o-	2g\	-o-	4bn\	-o-
.	.	.	.	.	.	4b,<\	-(ne)m
!LO:TX:t=P:problem=kreska pseudotaktowa	!	!LO:TX:t=P:problem=kreska pseudotaktowa	!	!LO:TX:t=P:problem=kreska pseudotaktowa	!	!	!
2C,</	-(ne)m	2e\	-(ne)m	2g\	-(ne)m	(1cc\	no-
!	!	!LO:LB:g=original	!	!	!	!	!
=41-	=41-	=41-	=41-	=41-	=41-	=41-	=41-
1G	no-	1d	no-	1g	noſ-	.	.
!	!	!	!	!	!	!LO:TX:t=P:problem=kreska pseudotaktowa	!
.	.	.	.	.	.	2b\)	.
!LO:TX:t=P:problem=kreska pseudotaktowa	!	!LO:TX:t=P:problem=kreska pseudotaktowa	!	!LO:TX:t=P:problem=kreska pseudotaktowa	!	!	!
1C,<	-stram	1en,<	-stram	1g,<	-tra(m)	2cc,<\	-stram
!	!	!	!	!	!	!LO:TX:t=P:problem=kreska pseudotaktowa	!
.	.	.	.	.	.	2gny/	Qui
=42-	=42-	=42-	=42-	=42-	=42-	=42-	=42-
2r	.	2rF	.	1ra	.	[1cc	se-
2C/	Qui	2Gny/	Qui	.	.	.	.
!LO:TX:t=P:problem=kreska pseudotaktowa	!	!LO:TX:t=P:problem=kreska pseudotaktowa	!	!	!	!	!
[<1F	se-	[<1A	se-	2r	.	2cc]	.
!	!	!	!	!LO:TX:t=P:problem=kreska pseudotaktowa	!	!	!
.	.	.	.	2c/	Qui	4a,<\	-des
!	!	!	!	!	!	!LO:TX:t=P:problem=kreska pseudotaktowa	!
.	.	.	.	.	.	4a\	ad
=43-	=43-	=43-	=43-	=43-	=43-	=43-	=43-
2F\]	.	1A]	.	1f	se-	1dd	dex-
4D,</	-des	.	.	.	.	.	.
!LO:TX:t=P:problem=kreska pseudotaktowa	!	!	!	!	!	!	!
4D/	ad	.	.	.	.	.	.
[1G	dex-	2Bn,<\	-des	2d,<\	-des	2dd\	-te-
!	!	!LO:TX:t=P:problem=kreska pseudotaktowa	!	!LO:TX:t=P:problem=kreska pseudotaktowa	!	!	!
.	.	2B\	ad	2d\	ad	4b\	.
!	!	!	!	!	!	!LO:TX:t=P:problem=kreska pseudotaktowa	!
.	.	.	.	.	.	4b\	-ram
=44-	=44-	=44-	=44-	=44-	=44-	=44-	=44-
2G\]	.	1B	dex-	1g	dex-	2.ee\	Pa-
4E\	-te-	.	.	.	.	.	.
!LO:TX:t=P:problem=kreska pseudotaktowa	!	!	!	!	!	!LO:TX:t=P:problem=kreska pseudotaktowa	!
4E,<\	-ram	.	.	.	.	4dd\	.
2.A\	Pa-	2c\	-te-	2e\	-te-	4cc\	.
.	.	.	.	.	.	4b\	.
*	*	*	*	*custos:a	*	*	*
!	!	!	!	!LO:TX:t=P:problem=kreska pseudotaktowa	!	!	!
!	!	!LO:TX:t=P:problem=kreska pseudotaktowa	!	!	!	!	!
.	.	2c\	-ram	2e\	-ram	4a\	.
!LO:TX:t=P:problem=kreska pseudotaktowa	!	!	!	!	!	!	!
4G\	.	.	.	.	.	8b\L	.
!	!	!	!	!	!	!LO:TX:t=P:problem=kreska pseudotaktowa	!
.	.	.	.	.	.	8cc\J	.
!	!	!	!	!LO:LB:g=original	!	!	!
=45-	=45-	=45-	=45-	=45-	=45-	=45-	=45-
4F\	.	1f	Pa-	1a	Pa-	2.dd\	.
4E\	.	.	.	.	.	.	.
4F\	.	.	.	.	.	.	.
!LO:TX:t=P:problem=kreska pseudotaktowa	!	!	!	!	!	!LO:TX:t=P:problem=kreska pseudotaktowa	!
4D\	.	.	.	.	.	4cc\	.
!	!	!LO:TX:t=P:problem=kreska pseudotaktowa	!	!LO:TX:t=P:problem=kreska pseudotaktowa	!	!	!
2.G\	.	1d,<	-tris	0g,<	-tris	4b\	.
.	.	.	.	.	.	4a\	.
!	!	!	!	!	!	!LO:TX:t=P:problem=kreska pseudotaktowa	!
.	.	.	.	.	.	2g,</	-tris
*custos:E	*	*	*	*	*	*	*
!LO:TX:t=P:problem=kreska pseudotaktowa	!	!	!	!	!	!	!
4F\	.	.	.	.	.	.	.
!LO:LB:g=original	!	!	!	!	!	!	!
=46-	=46-	=46-	=46-	=46-	=46-	=46-	=46-
2E,<\	-tris	1e	mi-	.	.	2cc\	mi-
1E	mi-	.	.	.	.	2b\	-ſe-
!	!	!LO:TX:t=P:problem=kreska pseudotaktowa	!	!	!	!	!
.	.	1c#X	-ſe-	0f#X	mi-	2a#X\	-re-
!LO:TX:t=P:problem=kreska pseudotaktowa	!	!	!	!	!	!LO:TX:t=P:problem=kreska pseudotaktowa	!
2E\	-ſe-	.	.	.	.	2a#,<\	-re
=47-	=47-	=47-	=47-	=47-	=47-	=47-	=47-
1D	-re-	1d	-re-	.	.	2b\	mi-
!	!	!	!	!	!	!LO:TX:t=P:problem=kreska pseudotaktowa	!
.	.	.	.	.	.	2an\	-ſe-
!LO:TX:t=P:problem=kreska pseudotaktowa	!	!LO:TX:t=P:problem=kreska pseudotaktowa	!	!	!	!	!
!	!	!	!	!	!	!LO:LB:g=original	!
1D,<	-re	1B,<	-re	0e	-ſe-	2g#X/	-re-
!	!	!	!	!	!	!LO:TX:t=P:problem=kreska pseudotaktowa	!
.	.	.	.	.	.	2g#,</	-re
=48-	=48-	=48-	=48-	=48-	=48-	=48-	=48-
*	*ij	*	*	*	*	*	*ij
2C/	mi-	2cny\	mi-	.	.	2a\	mi-
!LO:TX:t=P:problem=kreska pseudotaktowa	!	!	!	!	!	!LO:TX:t=P:problem=kreska pseudotaktowa	!
2AA/	-ſe-	2c\	-ſe-	.	.	2a\	-ſe-
2BBny/	-re-	2F#X/	-re-	4d#X\	-re-	2a\	-re-
.	.	.	.	4d#\	-re	.	.
!LO:TX:t=P:problem=kreska pseudotaktowa	!	!	!	!	!	!LO:TX:t=P:problem=kreska pseudotaktowa	!
2E\	-re	4G/	-re	1e\	no-	2gn\	-re
.	.	4B/	.	.	.	.	.
*	*Xij	*	*	*	*	*	*Xij
=49-	=49-	=49-	=49-	=49-	=49-	=49-	=49-
1BB	no-	1B	no-	.	.	1f#X	no-
.	.	.	.	2d#X\	.	.	.
1El;	-bis.	1Bl;	-bis.	1el;	-bis.	1g#Xl;	-bis.
=50||	=50||	=50||	=50||	=50||	=50||	=50||	=50||
*M2/1	*	*M2/1	*	*M2/1	*	*M2/1	*
*met(c|)	*	*met(c|)	*	*met(C|)	*	*met(C|)	*
4C/	Quo-	4c\	Quo-	4e\	Quo-	4gn/	Quo-
4D/	-ni-	4c\	-ni-	4e\	-ni-	4g/	-ni-
4E/	-am	4c,<\	-am	4e\	-am	4g/	-am
!LO:TX:t=P:problem=kreska pseudotaktowa	!	!LO:TX:t=P:problem=kreska pseudotaktowa	!	!LO:TX:t=P:problem=kreska pseudotaktowa	!	!LO:TX:t=P:problem=kreska pseudotaktowa	!
4C/	Tu	4c\	Tu	4e\	Tu	4g/	Tu
!	!	!LO:LB:g=original	!	!	!	!	!
2F\	so-	2c\	So-	2d\	so-	2a\	so-
!	!	!LO:TX:t=P:problem=kreska pseudotaktowa	!	!LO:TX:t=P:problem=kreska pseudotaktowa	!	!LO:TX:t=P:problem=kreska pseudotaktowa	!
2G,<\	-l(us)	2B\	-lus	2dn\	-l(us)	2g\	-l(us)
=51-	=51-	=51-	=51-	=51-	=51-	=51-	=51-
2C/	S(an)-	2c\	S(an)-	2e\	S(an)-	2g/	San-
4C,</	-ct(us)	4c,<\	-ct(us)	4e,<\	-ct(us)	4g,</	-ct(us)
!LO:TX:t=P:problem=kreska pseudotaktowa	!	!LO:TX:t=P:problem=kreska pseudotaktowa	!	!LO:TX:t=P:problem=kreska pseudotaktowa	!	!LO:TX:t=P:problem=kreska pseudotaktowa	!
4C/	Tu	4c\	Tu	4e\	Tu	4g/	Tu
2G\	so-	2Bn\	so-	2d\	so-	2g\	so-
!LO:TX:t=P:problem=kreska pseudotaktowa	!	!	!	!LO:TX:t=P:problem=kreska pseudotaktowa	!	!LO:TX:t=P:problem=kreska pseudotaktowa	!
2BBn/	-l(us)	2B\	-l(us)	2d\	-l(us)	2g\	-l(us)
=52-	=52-	=52-	=52-	=52-	=52-	=52-	=52-
2C/	Do-	2.A/	Do-	2e\	Do-	2g/	Do-
!LO:TX:t=P:problem=kreska pseudotaktowa	!	!	!	!LO:TX:t=P:problem=kreska pseudotaktowa	!	!	!
2D\	-mi-	.	.	2d\	-mi-	2f#X/	-mi-
!	!	!LO:TX:t=P:problem=kreska pseudotaktowa	!	!	!	!	!
.	.	4A/	-mi-	.	.	.	.
2GG,</	-n(us)	2B,<\	-n(us)	2d,<\	-n(us)	2g,<\	-n(us)
!LO:TX:t=P:problem=kreska pseudotaktowa	!	!LO:TX:t=P:problem=kreska pseudotaktowa	!	!	!	!LO:TX:t=P:problem=kreska pseudotaktowa	!
2E\	Tu	2B\	Tu	2e\	Tu	2g#X/	Tu
=53-	=53-	=53-	=53-	=53-	=53-	=53-	=53-
2A\	so-	2c\	so-	2e\	so-	2a\	So-
!LO:TX:t=P:problem=kreska pseudotaktowa	!	!LO:TX:t=P:problem=kreska pseudotaktowa	!	!LO:TX:t=P:problem=kreska pseudotaktowa	!	!LO:TX:t=P:problem=kreska pseudotaktowa	!
2E\	-l(us)	2B\	-lus	2e,<\	-l(us)	2g#X/	-lus
*	*	*	*ij	*	*ij	*	*
!LO:LB:g=original	!	!	!	!	!	!LO:LB:g=original	!
2A\	So-	2c\	so-	2e\	so-	2a\	so-
4Bn,<\	-lus	4d,<\	-lus	4d,<\	-l(us)	4g,</	-lus
*	*	*	*Xij	*	*Xij	*	*
!LO:TX:t=P:problem=kreska pseudotaktowa	!	!LO:TX:t=P:problem=kreska pseudotaktowa	!	!LO:TX:t=P:problem=kreska pseudotaktowa	!	!LO:TX:t=P:problem=kreska pseudotaktowa	!
4G\	al-	4B\	al-	4d\	Al-	4g/	Al-
!	!	!	!	!LO:LB:g=original	!	!	!
=54-	=54-	=54-	=54-	=54-	=54-	=54-	=54-
2c\	-tiſ-	2c\	-tiſ-	2e\	-tiſ-	2g/	-tiſ-
4C/	-si-	4c\	-si-	4e\	-si-	4g/	-si-
!LO:TX:t=P:problem=kreska pseudotaktowa	!	!LO:TX:t=P:problem=kreska pseudotaktowa	!	!LO:TX:t=P:problem=kreska pseudotaktowa	!	!LO:TX:t=P:problem=kreska pseudotaktowa	!
4C,</	-m(us)	4c\	-m(us)	4e\	-m(us)	4g/	-m(us)
2F\	Je-	4c\	Je-	2f\	Je-	2a\	Je-
.	.	4c\	-ſu	.	.	.	.
!LO:TX:t=P:problem=kreska pseudotaktowa	!	!	!	!LO:TX:t=P:problem=kreska pseudotaktowa	!	!LO:TX:t=P:problem=kreska pseudotaktowa	!
2C/	-su	1c\	Chri-	2e\	-su	2g\	-ſu
=55-	=55-	=55-	=55-	=55-	=55-	=55-	=55-
!	!	!	!	!LO:TX:t=P:problem=kreska pseudotaktowa	!	!LO:TX:t=P:problem=kreska pseudotaktowa	!
1G	X-	.	.	1d	X-	1g	X-
.	.	2B\	.	.	.	.	.
!LO:TX:t=P:problem=kreska pseudotaktowa	!	!LO:TX:t=P:problem=kreska pseudotaktowa	!	!	!	!LO:TX:t=P:problem=kreska pseudotaktowa	!
1C	-te!	1c,<	-ſte	2e,<\	-te	1g,<	-te
!	!	!	!	!LO:TX:t=P:problem=kreska pseudotaktowa	!	!	!
.	.	.	.	2e\	Cum	.	.
=56-	=56-	=56-	=56-	=56-	=56-	=56-	=56-
!	!	!	!	!LO:TX:t=P:problem=kreska pseudotaktowa	!	!	!
0r	.	2r	.	1f	San-	00r	.
!	!	!LO:TX:t=P:problem=kreska pseudotaktowa	!	!	!	!	!
.	.	2A\	Cum	.	.	.	.
.	.	1c	San-	2e,<\	-cto	.	.
.	.	.	.	1a\	Spi-	.	.
=57-	=57-	=57-	=57-	=57-	=57-	=57-	=57-
2r	.	2Bn,<\	-cto	.	.	.	.
!LO:TX:t=P:problem=kreska pseudotaktowa	!	!	!	!LO:TX:t=P:problem=kreska pseudotaktowa	!	!	!
2E\	Cum	1e\	Spi-	2g#X\	-ri-	.	.
1F	San-	.	.	2a,<\	-tu	.	.
!	!	!LO:TX:t=P:problem=kreska pseudotaktowa	!	!	!	!	!
.	.	2d\	-ri-	2a\	in	.	.
!	!	!LO:LB:g=original	!	!	!	!	!
=58-	=58-	=58-	=58-	=58-	=58-	=58-	=58-
!	!	!	!	!	!	!LO:TX:t=P:problem=kreska pseudotaktowa	!
2E,<\	-cto	2e,<\	-tu	2g#X\	glo-	1r	.
!	!	!LO:TX:t=P:problem=kreska pseudotaktowa	!	!LO:TX:t=P:problem=kreska pseudotaktowa	!	!	!
1A\	Spi-	2e\	in	2a\	-ri-	.	.
.	.	2d\	glo-	2A/	-a	1bn	Cum
!LO:TX:t=P:problem=kreska pseudotaktowa	!	!	!	!LO:TX:t=P:problem=kreska pseudotaktowa	!	!	!
2G#X\	-ri-	4d\	-ri-	2r	.	.	.
!	!	!LO:TX:t=P:problem=kreska pseudotaktowa	!	!	!	!	!
.	.	4d\	-a	.	.	.	.
=59-	=59-	=59-	=59-	=59-	=59-	=59-	=59-
2A,<\	-tu	2c\	De-	2r	.	1cc	S(an)-
!LO:TX:t=P:problem=kreska pseudotaktowa	!	!LO:TX:t=P:problem=kreska pseudotaktowa	!	!LO:TX:t=P:problem=kreska pseudotaktowa	!	!	!
2A\	in	2A\	-i	2e\	in	.	.
2Gn\	glo-	2B\	Pa-	2e\	glo-	2b,<\	-cto
!	!	!LO:TX:t=P:problem=kreska pseudotaktowa	!	!	!	!	!
4G\	-ri-	2B\	-tris	4f\	-ri-	1ee\	Spi-
!LO:TX:t=P:problem=kreska pseudotaktowa	!	!	!	!	!	!	!
4G\	-a	.	.	4e\	-a	.	.
=60-	=60-	=60-	=60-	=60-	=60-	=60-	=60-
!	!	!LO:TX:t=P:problem=kreska pseudotaktowa	!	!	!	!	!
2F\	De-	1re	.	2a\	De-	.	.
!LO:TX:t=P:problem=kreska pseudotaktowa	!	!	!	!LO:TX:t=P:problem=kreska pseudotaktowa	!	!LO:TX:t=P:problem=kreska pseudotaktowa	!
2F\	-i	.	.	2a\	-i	2dd\	-ri-
2E\	Pa-	1.c	A-	1gny	Pa-	2ee,<\	-tu
!	!	!	!	!	!	!LO:TX:t=P:problem=kreska pseudotaktowa	!
2C,</	-tris	.	.	.	.	2ee\	in
=61-	=61-	=61-	=61-	=61-	=61-	=61-	=61-
!LO:TX:t=P:problem=kreska pseudotaktowa	!	!	!	!	!	!	!
1G	A-	.	.	2g,<\	-tris	2dd\	glo-
!	!	!LO:TX:t=P:problem=kreska pseudotaktowa	!	!LO:TX:t=P:problem=kreska pseudotaktowa	!	!	!
.	.	2B\	.	[<2g\	A-	4dd\	-ri-
!	!	!	!	!	!	!LO:TX:t=P:problem=kreska pseudotaktowa	!
.	.	.	.	.	.	4dd\	-a
!	!	!LO:TX:t=P:problem=kreska pseudotaktowa	!	!	!	!	!
2C,</	-men	1c,<	-men	4g\]	.	2ccn\	De-
.	.	.	.	4f\	.	.	.
*custos:c	*	*	*	*	*	*	*
!LO:TX:t=P:problem=kreska pseudotaktowa	!	!	!	!	!	!LO:TX:t=P:problem=kreska pseudotaktowa	!
[<2c\	A-	.	.	4e\	.	2cc\	-i
.	.	.	.	4d\	.	.	.
=62-	=62-	=62-	=62-	=62-	=62-	=62-	=62-
4c\]	.	2.c\	A-	2c/	.	2cc\	Pa-
4B-X\	.	.	.	.	.	.	.
!	!	!	!	!LO:TX:t=P:problem=kreska pseudotaktowa	!	!LO:TX:t=P:problem=kreska pseudotaktowa	!
4A\	.	.	.	[<2f\	.	2cc\	-tris
!LO:TX:t=P:problem=kreska pseudotaktowa	!	!LO:TX:t=P:problem=kreska pseudotaktowa	!	!	!	!	!
4G\	.	4B\	.	.	.	.	.
!	!	!	!	!LO:LB:g=original	!	!	!
2F\	.	2A\	.	4f\]	.	(4dd\	A-
.	.	.	.	4e\	.	4cc\	.
!LO:TX:t=P:problem=kreska pseudotaktowa	!	!LO:TX:t=P:problem=kreska pseudotaktowa	!	!	!	!	!
[2G\	.	2B\	-men	4d\	.	4b\	.
!	!	!	!	!LO:TX:t=P:problem=kreska pseudotaktowa	!	!	!
.	.	.	.	4c\	.	4a\)	.
=63-	=63-	=63-	=63-	=63-	=63-	=63-	=63-
!	!	!LO:TX:t=P:problem=kreska pseudotaktowa	!	!	!	!	!
4G\]	.	1r	.	2B/	.	2g,</	-men
4F\	.	.	.	.	.	.	.
!	!	!	!	!	!	!LO:TX:t=P:problem=kreska pseudotaktowa	!
4E\	.	.	.	[2e\	.	[2cc\	A-
!LO:TX:t=P:problem=kreska pseudotaktowa	!	!	!	!	!	!	!
4D\	.	.	.	.	.	.	.
2C/	.	1c	A-	4e\]	.	4cc]	.
.	.	.	.	4d\	.	4b\	.
[2F\	.	.	.	4c\	.	4a\	.
!	!	!	!	!LO:TX:t=P:problem=kreska pseudotaktowa	!	!LO:TX:t=P:problem=kreska pseudotaktowa	!
.	.	.	.	4B\	.	4g\	.
!	!	!	!	!	!	!LO:LB:g=original	!
=64-	=64-	=64-	=64-	=64-	=64-	=64-	=64-
4F\]	.	0d	.	2A,</	-men	4fn/	.
4E\	.	.	.	.	.	4g/	.
4D\	.	.	.	1a\	A-	4f/	.
!	!	!	!	!	!	!LO:TX:t=P:problem=kreska pseudotaktowa	!
4C/	.	.	.	.	.	4e/	.
2BBn/	.	.	.	.	.	2d/	.
!LO:TX:t=P:problem=kreska pseudotaktowa	!	!	!	!	!	!LO:TX:t=P:problem=kreska pseudotaktowa	!
2BB,</	-men	.	.	2g#X,<\	-men	2d,</	-men
=65-	=65-	=65-	=65-	=65-	=65-	=65-	=65-
2AA/	De-	2c,<\	-men	2a\	De-	2e/	De-
!LO:TX:t=P:problem=kreska pseudotaktowa	!	!LO:TX:t=P:problem=kreska pseudotaktowa	!	!LO:TX:t=P:problem=kreska pseudotaktowa	!	!LO:TX:t=P:problem=kreska pseudotaktowa	!
2AA/	-i	2c\	in	2e\	-i	2a\	-i
2E\	Pa-	2B\	glo-	1.e	Pa-	2g#X/	Pa-
!LO:TX:t=P:problem=kreska pseudotaktowa	!	!	!	!	!	!LO:TX:t=P:problem=kreska pseudotaktowa	!
2E\	-tris	4B\	-ri-	.	.	2g#/	-tris
!	!	!LO:TX:t=P:problem=kreska pseudotaktowa	!	!	!	!	!
.	.	4B\	-a	.	.	.	.
=66-	=66-	=66-	=66-	=66-	=66-	=66-	=66-
2A\	A-	4c\	De-	.	.	2a\	A-
.	.	4c\	-i	.	.	.	.
!	!	!	!	!LO:TX:t=P:problem=kreska pseudotaktowa	!	!LO:TX:t=P:problem=kreska pseudotaktowa	!
2E\	-men	4B\	P(a-	2e\	-tris	2g#X\	-men
!	!	!LO:TX:t=P:problem=kreska pseudotaktowa	!	!	!	!	!
.	.	4B\	-t)ris	.	.	.	.
0AA	A-	0c	A-	0e	A-	0a	A-
=67-	=67-	=67-	=67-	=67-	=67-	=67-	=67-
!	!	!LO:TX:t=P:problem=kreska pseudotaktowa	!	!	!	!	!
1El;	-men.	1Bnl;	-men.	1el;	-men.	1g#Xl;	-men.
==	==	==	==	==	==	==	==
*-	*-	*-	*-	*-	*-	*-	*-
!!!system-decoration: [(s1,s2,s3,s4)]
!!!RDF**kern: > = above
!!!RDF**kern: < = below
!!!RDF**kern: l = terminal long
!!!RDF**kern: | = vertical stroke
!!!ENC: Andrzej Kubiczek
!!!END: 2021-07-25
!!!ENC: Berenika Jozajtis
!!!END: 2021-07-02
